X:33
T:German Dance, The
M:2/4
L:1/8
B:Thompson's Compleat Collection of 200 Favourite Country Dances, vol. 3 (London, 1773)
Z:Transcribed and edited by Flynn Titford-Mock, 2007
Z:abc's:AK/Fiddler's Companion
K:G
G2 G/F/G/A/ | GB G2 | A2 A/G/A/B/ | Ac A2 | B2c2 | c2 ec | B2A2 | G4::f2 af | g2 bg | f2
af | g2 bg |
e2 ge | d2 ec | B2A2 | G4::d3d | dd d2 | B3B | BB B2 | AB c2 | Bc d2 |
cABG | A2D2::f3f | ff f2 | g3g | gg g2 | e2e2 | d2 ec | B2A2 | G4 :|

